X:45
T: INS BAYRISCH GEGANGE
N: E1041A
O: Europa, Mitteleuropa, Deutschland, Hessen, Lahnkreis; Dillkreis
R: Tanz - Lied
M: 3/4
L: 1/8
K: F
A2 | c3BA2 | G3A
Bd | d3cB2 | A4
cc | c2A2f2 | f3e
d2 | c2B2c2 | A4
A2 | G2G3F | EGc2
ee | g3fe=B | c4
cc | d2c2B2 | Acf2
cf | e3dcB | A4
cc | d2c2B2 | Acf2
cf | e3dcB | A4

